!!!!SEGMENT: pl-kk--kk-i-382--010-003-pc1_anonim--nro-3-agnus-pc1.krn
!!!cenid: 18xx:1471b
!!!COM: Anonim
!!!COM-rismid: pe30004985
!!!CDT:
!!!CNT:
!!!OTL: Nro 3 Agnus
!!!PDT:
!!!AGN: Sacred
!!!SMS-siglum: PL-Kk
!!!SMS-shelfmark: Kk.I.382
!!!SMS-shelfwork: 010-003
!!!SMS-variant:
!!!SMS-altvar:
!!!NIFC-rismid: 1001139093
!!!URL-scan: http://repozytorium.nifc.pl/skany/pl-kk-nut--i-382
!!!ONB-nifc: UWAGA: obsada: S (T 1), T 2, A (B 1), B 2; S (T 1): skan 00010-00011; A (B 1): skan 0155; T 2: skan 0082; B 2: skan 0227
**kern	**text	**dynam	**kern	**text	**kern	**text	**kern	**text
*part4	*part4	*part4	*part3	*part3	*part2	*part2	*part1	*part1
*staff4	*staff4	*	*staff3	*staff3	*staff2	*staff2	*staff1	*staff1
*I"Basso II	*	*	*I"Tenore II	*	*I"Alto vel Basso I	*	*I"Soprano vel Tenore I.	*
*I'B 2	*	*	*I'T 2	*	*I'A (B 1) 1	*	*I'S (T 1)	*
*clefF4	*	*	*clefC4	*	*clefC3	*	*clefC1	*
*k[]	*	*	*k[]	*	*k[]	*	*k[]	*
*M4/4	*	*	*M4/4	*	*M4/4	*	*M4/4	*
*met(C.)	*	*	*met(C.)	*	*met(C.)	*	*met(C.)	*
=1	=1	=1	=1	=1	=1	=1	=1	=1
*2\right	*	*	*2\right	*	*2\right	*	*2\right	*
!LO:TX:t=P:problem:all\right:global	!	!	!LO:TX:a:i:t=Agnus.	!	!LO:TX:t=P:problem:all\right:global	!	!LO:TX:t=P:problem:all\right:global	!
!LO:TX:a:t=P:problem:w źródle "Agnus." zapisane przed pierwszym taktem, na wysokości pięciolinii	!	!	!LO:TX:a:t=P:problem:w źródle "Agnus." zapisane przed pierwszym taktem, na pięciolinii	!	!LO:TX:a:t=P:problem:w źródle "Agnus." zapisane przed pierwszym taktem, na pięciolinii	!	!LO:TX:a:t=P:problem:w źródle "Agnus." zapisane przed pierwszym taktem, na wysokości pięciolinii	!
!LO:TX:a:i:t=Agnus.	!	!	!LO:TX:t=P:problem:all\right:global	!	!LO:TX:a:i:t=Agnus.	!	!LO:TX:a:i:t=Agnus.	!
!	!	!	!	!	!	!	!LO:TX:a:t=P:problem:w źródle "g" zapisane ołówkiem	!
!	!	!	!	!	!	!	!LO:TX:a:i:t=g	!
(>4c\	A-	.	4c\	A-	(>4e\	A-	2.g\	A-
4G\)	.	.	4B\	.	4d\	.	.	.
(>4E\	-gnus	.	4c\	.	4e\)	.	.	.
4F\)	.	.	(>8d\L	-gnus	(>8f\L	gnus	4g\	-gnus
.	.	.	8c\J)	.	8e\J)	.	.	.
=2	=2	=2	=2	=2	=2	=2	=2	=2
2G\	De-	.	2c\	De-	2e\	De-	2g\	De-
2GG/	-i	.	2B\	-i	2d\	-i	2g\	-i
=3	=3	=3	=3	=3	=3	=3	=3	=3
2G\	a-	.	(>4d\	a-	(>4f\	A-	(>4b\	a-
.	.	.	4c\)	.	4e\)	.	4cc\)	.
(>4B\	-gnus	.	(>4d\	-gnus	(>4f\	-gnus	(>4b\	-gnus
4G\)	.	.	4e\)	.	4g\)	.	4g\)	.
=4	=4	=4	=4	=4	=4	=4	=4	=4
(>4c\	De-	.	2d\	De-	2f\	De-	2g\	De-
8G\L	.	.	.	.	.	.	.	.
8E\J)	.	.	.	.	.	.	.	.
4C/	-i	.	4c\	-i	4e\	-i	4g\	-i
4C/	qui	.	4c\	qui	4e\	qui	4g\	qui
=5	=5	=5	=5	=5	=5	=5	=5	=5
2c\	tol-	.	2c\	tol-	2e\	tol-	2g\	tol-
4A\	-lis	.	4c\	-lis	4f#X\	-lis	4a\	-lis
4A\	pec-	.	4c\	pec-	4f#\	pec-	4a\	pec-
=6	=6	=6	=6	=6	=6	=6	=6	=6
2G\	-ca-	.	2B\	-ca-	2g\	-ca-	2.dd\	-ca-
(>4F#X\	-ta	.	(>4c\	-ta	(>4a\	-ta	.	.
4G\)	.	.	4B\)	.	4g\)	.	4dd\	-ta
!LO:LB:g=original	!	!	!LO:LB:g=original	!	!LO:LB:g=original	!	!LO:LB:g=original	!
=7	=7	=7	=7	=7	=7	=7	=7	=7
1D	mun-	.	1A	mun-	1f#X	mun-	1dd	mun-
=8	=8	=8	=8	=8	=8	=8	=8	=8
2.G\	-di	.	2.B\	-di	2g\	-di	2dd\	-di
.	.	.	.	.	2r	.	2r	.
4r	.	.	4r	.	.	.	.	.
=9	=9	=9	=9	=9	=9	=9	=9	=9
(>4G\	mi-	.	(>4B\	mi-	2g\	mi-	2ff\	mi-
4A\)	.	.	4c\)	.	.	.	.	.
(>4B\	-se-	.	(>4d\	-se-	2g\	-se-	2dd\	-se-
4G\)	.	.	4f\)	.	.	.	.	.
=10	=10	=10	=10	=10	=10	=10	=10	=10
(>4c\	-re-	.	(>4e\	-re-	(>4g\	-re-	(>4ee\	-re-
4G\)	.	.	4d\)	.	4f\)	.	4dd\)	.
(>4E\	-re	.	2c\	-re	2e\	-re	2cc\	-re
4C/)	.	.	.	.	.	.	.	.
=11	=11	=11	=11	=11	=11	=11	=11	=11
2BB/	mi-	.	2B\	mi-	2d\	mi-	2ff\	mi-
2C/	-se-	.	2c\	-se-	2e\	-se-	2ee\	-se-
=12	=12	=12	=12	=12	=12	=12	=12	=12
2F\	-re-	.	2d\	-re-	2f\	-re-	2dd\	-re-
(>4E\	-re	.	(>4e\	-re	(>4g\	-re	(>4cc\	-re
4F\)	.	.	4d\)	.	4f\)	.	4dd\)	.
=13	=13	=13	=13	=13	=13	=13	=13	=13
(>2G\	no-	.	(>2c\	no-	(>2e\	no-	(>2cc\	no-
2GG/)	.	.	2B\)	.	2d\)	.	2g/)	.
=14	=14	=14	=14	=14	=14	=14	=14	=14
2.C/	-bis	.	2.c\	-bis	2.e\	-bis	2g\	-bis
.	.	.	.	.	.	.	2r	.
4r	.	.	4r	.	4r	.	.	.
!LO:LB:g=original	!	!	!	!	!	!	!LO:LB:g=original	!
=15	=15	=15	=15	=15	=15	=15	=15	=15
(>4d\	mi-	.	(>4B\	mi-	2g\	mi-	2ff\	mi-
4c\)	.	.	4c\)	.	.	.	.	.
(>4B\	-se-	.	(>4d\	-se-	2g\	-se-	2dd\	-se-
4G\)	.	.	4f\)	.	.	.	.	.
!	!	!	!LO:LB:g=original	!	!	!	!	!
=16	=16	=16	=16	=16	=16	=16	=16	=16
(>4c\	-re-	.	(>4e\	-re-	(>4g\	-re-	(>4cc\	-re-
4G\)	.	.	4d\)	.	4f\)	.	4b\)	.
(>4E\	-re	.	2c\	-re	2e\	-re	2g\	-re
4C/)	.	.	.	.	.	.	.	.
!	!	!	!	!	!LO:LB:g=original	!	!	!
=17	=17	=17	=17	=17	=17	=17	=17	=17
2BB/	mi-	.	2B\	mi-	2d\	mi-	2ff\	mi-
2C/	-se-	.	2c\	-se-	2e\	-se-	2ee\	-se-
=18	=18	=18	=18	=18	=18	=18	=18	=18
2F\	-re-	.	2d\	-re-	2f\	-re-	2cc\	-re-
(>4E\	-re	.	(>4e\	-re	(>4g\	-re	(>4dd\	-re
4F\)	.	.	4d\)	.	4f\)	.	4cc\)	.
=19	=19	=19	=19	=19	=19	=19	=19	=19
2G\	no-	.	(>2c\	no-	(>2e\	no-	1g	no-
2GG/	.	.	2B\)	.	2d\)	.	.	.
=20	=20	=20	=20	=20	=20	=20	=20	=20
!	!	!	!	!	!	!	!LO:TX:a:t=P:problem:w źródle ta adnotacja zapisana za taktem 20, na pięciolinii	!
!	!	!	!	!	!	!	!LO:TX:a:i:t=V&colon; S&colon;	!
1C	-bis.	.	1c	-bis	1e	-bis.	1g	-bis.
!LO:LB:g=original	!	!	!LO:LB:g=original	!	!LO:LB:g=original	!	!LO:PB:g=original	!
==21	==21	==21	==21	==21	==21	==21	==21	==21
*M4/4	*	*	*M4/4	*	*M4/4	*	*M4/4	*
*met(C.)	*	*	*met(C.)	*	*met(C.)	*	*met(C.)	*
(>4C\	A-	.	2.c\	A-	2.g\	A-	2.ee\	A-
4E\)	.	.	.	.	.	.	.	.
(>4G\	-gnus	.	.	.	.	.	.	.
4c\)	.	.	4c\	-gnus	4g\	-gnus	4ee\	-gnus
=22	=22	=22	=22	=22	=22	=22	=22	=22
(>4B-X\	De-	.	2c\	De-	2g\	De-	2ee\	De-
4G\)	.	.	.	.	.	.	.	.
4E\	-i	.	4c\	-i	4g\	-i	4ee\	-i
4C/	qui	.	4c\	qui	4g\	qui	4ee\	qui
=23	=23	=23	=23	=23	=23	=23	=23	=23
4F\	tol-	.	4c\	tol-	4a\	tol-	4ff\	tol-
4F\	-lis	.	4c\	-lis	4a\	-lis	4ff\	-lis
4r	.	.	4r	.	4r	.	4r	.
4F\	pec-	.	4c\	pec-	4a\	pec-	4ff\	pec-
=24	=24	=24	=24	=24	=24	=24	=24	=24
4C/	-ca-	.	4c\	-ca-	4g\	-ca-	4ee\	-ca-
4C/	-ta	.	4c\	-ta	4a\	-ta	4ff\	-ta
2C/	mun-	.	2e\	mun-	2b-X\	mun-	2gg\	mun-
=25	=25	=25	=25	=25	=25	=25	=25	=25
2.F\	-di	.	2.c\	-di	2.a\	-di	2ff\	-di
.	.	.	.	.	.	.	2r	.
4r	.	.	4r	.	4r	.	.	.
=26	=26	=26	=26	=26	=26	=26	=26	=26
(>4D\	a-	.	2.A\	A-	2.f#X\	A-	2.dd\	A-
4F#X\)	.	.	.	.	.	.	.	.
(>4A\	-gnus	.	.	.	.	.	.	.
4d\)	.	.	4A\	-gnus	4f#\	-gnus	4dd\	-gnus
!	!	!	!	!	!	!	!LO:LB:g=original	!
=27	=27	=27	=27	=27	=27	=27	=27	=27
(>4cn\	De-	.	2A\	De-	2f#X\	De-	2dd\	De-
4A\)	.	.	.	.	.	.	.	.
4F#X\	-i	.	4A\	-i	4f#\	-i	4dd\	-i
4D\	qui	.	4A\	qui	4f#\	qui	4dd\	qui
!LO:LB:g=original	!	!	!LO:LB:g=original	!	!LO:LB:g=original	!	!	!
=28	=28	=28	=28	=28	=28	=28	=28	=28
4G\	tol-	.	4B\	tol-	4g\	tol-	4dd\	tol-
4GG/	-lis	.	4B\	-lis	4g\	-lis	4dd\	-lis
4r	.	.	4r	.	4r	.	4r	.
4G\	pec-	.	4B\	pec-	4g\	pec-	4dd\	pec-
=29	=29	=29	=29	=29	=29	=29	=29	=29
4D\	-ca-	.	4A\	-ca-	4f#X\	-ca-	4dd\	-ca-
4D\	-ta	.	4B\	-ta	4g\	-ta	4dd\	-ta
2D\	mun-	.	2c\	mun-	2a\	mun-	2dd\	mun-
=30	=30	=30	=30	=30	=30	=30	=30	=30
2G\	-di	.	2B\	-di	2g\	-di	2dd\	-di
2G\	pec-	.	2B\	pec-	2g\	pec-	2dd\	pec-
=31	=31	=31	=31	=31	=31	=31	=31	=31
2F#X\	-ca-	.	2c\	-ca-	2a\	-ca-	2ee-X\	-ca-
2G\	-ta	.	2B\	-ta	2g\	-ta	2dd\	-ta
=32	=32	=32	=32	=32	=32	=32	=32	=32
(>4c\	mun-	.	(>4A\	mun-	(>2f#X\	mun-	(>2ee-X\	mun-
4A\	.	.	4c\	.	.	.	.	.
4G\	.	.	4B\	.	4g\	.	2dd\)	.
4F#X\)	.	.	4c\)	.	4a\)	.	.	.
=33	=33	=33	=33	=33	=33	=33	=33	=33
1G	-di.	.	1B	-di.	1g	-di.	1dd	-di,
!LO:LB:g=original	!	!	!LO:LB:g=original	!	!LO:LB:g=original	!	!LO:LB:g=original	!
==34	==34	==34	==34	==34	==34	==34	==34	==34
*M4/4	*	*	*M4/4	*	*M4/4	*	*M4/4	*
*met(C.)	*	*	*met(C.)	*	*met(C.)	*	*met(C.)	*
!LO:TX:a:t=P:problem:w źródle ta adnotacja zapisana przed taktem 34, na wysokości pięciolinii	!	!	!LO:TX:a:t=P:problem:w źródle ta adnotacja zapisana przed taktem 34, na pięciolinii	!	!LO:TX:a:t=P:problem:w źródle ta adnotacja zapisana przed taktem 34, na pięciolinii	!	!LO:TX:a:t=P:problem:w źródle ta adnotacja zapisana przed taktem 34, na pięciolinii	!
!LO:TX:a:i:t=Dona	!	!	!LO:TX:a:i:t=Dona	!	!LO:TX:a:i:t=Dona	!	!LO:TX:a:i:t=Dona.	!
4.C/	Do-	.	4.c\	Do-	4.g\	Do-	4.ee\	Do-
8C/	-na	.	8c\	-na	8g\	-na	8ee\	-na
4E\	no-	.	4c\	no-	4g\	no-	4ee\	no-
4G\	-bis	.	4B\	-bis	4f\	-bis	4dd\	-bis
=35	=35	=35	=35	=35	=35	=35	=35	=35
8c\L	pa-	.	2G/	pa-	2e\	pa-	2cc\	pa-
8G\	.	.	.	.	.	.	.	.
8E\	.	.	.	.	.	.	.	.
8C\J	.	.	.	.	.	.	.	.
2G\	-cem	.	2G/	-cem	2d\	-cem	2b\	-cem
=36	=36	=36	=36	=36	=36	=36	=36	=36
4C/	do-	.	4G/	do-	4e\	do-	4cc\	do-
4C/	-na	.	4G/	-na	(>8d\L	-na	(>8b\L	-na
.	.	.	.	.	8e\J)	.	8cc\J)	.
4BB/	no-	.	4G/	no-	4f\	no-	4dd\	no-
4C/	-bis	.	4G/	-bis	4e\	-bis	4cc\	-bis
=37	=37	=37	=37	=37	=37	=37	=37	=37
8G/L	pa-	.	2G/	pa-	(>4.e\	pa-	(>4cc\	pa-
8D/	.	.	.	.	.	.	.	.
8BB/	.	.	.	.	.	.	4b\)	.
8D/J	.	.	.	.	8d\)	.	.	.
2GG/	-cem	.	2G/	-cem	2d\	-cem	2b\	-cem
!	!	!	!	!	!	!	!LO:LB:g=original	!
=38	=38	=38	=38	=38	=38	=38	=38	=38
4GG/	do-	.	4B\	do-	4f\	do-	4dd\	do-
4G\	-na	.	4B\	-na	4f\	-na	4dd\	-na
4G\	no-	.	4G/	no-	4e\	no-	4cc\	no-
4G\	-bis	.	4G/	-bis	4d\	-bis	4b\	-bis
!LO:LB:g=original	!	!	!LO:LB:g=original	!	!LO:LB:g=original	!	!	!
=39	=39	=39	=39	=39	=39	=39	=39	=39
(>4c\	pa-	.	(>4G/	pa-	(>4e\	pa-	(>4cc\	pa-
8G\L	.	.	4B\)	.	4f\)	.	4dd\)	.
8E\J)	.	.	.	.	.	.	.	.
2C/	-cem	.	2c\	-cem	2g\	-cem	2ee\	-cem
=40	=40	=40	=40	=40	=40	=40	=40	=40
4C/	do-	.	(>8e\L	do-	(>8g\L	do-	(>8ee\L	do-
.	.	.	8c\J)	.	8e\J)	.	8cc\J)	.
4BB/	-na	.	(>8f\L	-na	(>8a\L	-na	(>8ff\L	-na
.	.	.	8e\J)	.	8g\J)	.	8ee\J)	.
4C/	no-	.	(>8e\L	no-	(>8g\L	no-	(>8ee\L	no-
.	.	.	8d\J)	.	8f\J)	.	8dd\J)	.
4F#X\	-bis	.	(>8d\L	-bis	(>8f\L	-bis	(>8dd\L	-bis
.	.	.	8c\J)	.	8e\J)	.	8cc\J)	.
=41	=41	=41	=41	=41	=41	=41	=41	=41
2G\	pa-	.	(>4.c\	pa-	(>4.e\	pa-	(>4.cc\	pa-
.	.	.	8B\)	.	8d\)	.	8b\)	.
!LO:TX:a:i:t=solo.	!	!	!	!	!	!	!	!
2GG/	-cem	.	2B\	-cem	2d\	-cem	2b\	-cem
=42	=42	=42	=42	=42	=42	=42	=42	=42
!	!	!	!	!	!LO:TX:b:t=2	!	!	!
!LO:TX:a:t=P:problem:w źródle "p." zapisane na pięciolinii	!	!	!	!	!	!	!	!
!	!	!LO:DY:rj	!	!	!	!	!	!
!	!	!LO:DY:b:t=p.	!	!	!	!	!	!
4.B\	Do-	p	4.d\	do-	0r	.	4.b\	do-
8A\	-na	.	8c\	-na	.	.	8a\	-na
4G\	no-	.	4B\	no-	.	.	4g\	no-
4A\	-bis	.	4c\	-bis	.	.	4a\	-bis
!	!	!	!	!	!	!	!LO:LB:g=original	!
=43	=43	=43	=43	=43	=43	=43	=43	=43
(>8B\L	pa-	.	(>8d\L	pa-	.	.	(>8b\L	pa-
8c\	.	.	8e\	.	.	.	8cc\	.
8B\	.	.	8d\	.	.	.	8b\	.
8c\J)	.	.	8e\J)	.	.	.	8cc\J)	.
!	!	!	!LO:N:vis=4.	!	!	!	!	!
2d\	-cem	.	4f\	-cem	.	.	4dd\	-cem
!	!	!	!LO:TX:a:t=P:problem:w źródle ta adnotacja zapisana za taktem 43, na pięciolinii	!	!	!	!	!
!	!	!	!LO:TX:a:i:t=V&colon; S&colon;	!	!	!	!	!
.	.	.	4r	.	.	.	4r	.
!	!	!	!LO:PB:g=original	!	!	!	!	!
=44	=44	=44	=44	=44	=44	=44	=44	=44
4.c\	do-	.	4.e\	Do-	4.g\	do-	4.cc\	do-
8G\	-na	.	8d\	-na	8f\	-na	8g\	-na
!LO:LB:g=original	!	!	!	!	!	!	!	!
4E\	no-	.	4c\	no-	4e\	no-	4g\	no-
4G\	-bis	.	4d\	-bis	4f\	-bis	4g\	-bis
=45	=45	=45	=45	=45	=45	=45	=45	=45
(>8c\L	pa-	.	(>8e\L	pa-	(>8g\L	pa-	(>8cc\L	pa-
8B\	.	.	8f\	.	8a\	.	8b\	.
8c\	.	.	8e\	.	8g\	.	8cc\	.
8B\J)	.	.	8f\J)	.	8a\J)	.	8b\J)	.
!	!	!	!LO:TX:a:t=P:problem:w źródle ta adnotacja zapisana ołówkiem	!	!	!	!	!
!	!	!	!LO:TX:a:i:t=Solo	!	!	!	!	!
4c\	-cem	.	4e\	-cem	4g\	-cem	4cc\	-cem
4r	.	.	(>8e\L	do-	4r	.	4r	.
!LO:TX:a:t=P:problem:w źródle "f." zapisane na pięciolinii	!	!	!	!	!	!	!	!
!	!	!LO:DY:b:t=f.	!	!	!	!	!	!
.	.	f	8f\J)	.	.	.	.	.
!	!	!	!	!	!LO:LB:g=original	!	!	!
=46	=46	=46	=46	=46	=46	=46	=46	=46
4C/	Do-	.	(>8g\L	-na	(>8e\L	do-	4cc\	do-
.	.	.	8e\J)	.	8g\J)	.	.	.
4E\	-na	.	2c\	no-	4e\	-na	4g\	-na
4C/	no-	.	.	.	4e\	no-	(>4g\	pa-
!	!	!	!	!	!	!	!LO:TX:a:t=P:problem:w źródle ta adnotacja zapisana ołówkiem	!
!	!	!	!	!	!	!	!LO:TX:i:b:t=pam	!
4E\	-bis	.	4B-X\	-bis	4g\	-bis	4cc\)	.
=47	=47	=47	=47	=47	=47	=47	=47	=47
!	!	!	!	!	!	!	!LO:TX:a:t=P:problem:w źródle ta adnotacja zapisana ołówkiem	!
!	!	!	!	!	!	!	!LO:TX:b:t=c	!
(>4F\	pa-	.	(>4.B-X\	pa-	(>4.g\	pa-	2cc\	-cem
4C/)	.	.	.	.	.	.	.	.
.	.	.	8A\)	.	8f\)	.	.	.
!	!	!	!LO:TX:a:t=P:problem:w źródle ta adnotacja zapisana ołówkiem	!	!	!	!	!
!	!	!	!LO:TX:a:i:t=Solo	!	!	!	!	!
4FF/	-cem	.	4A\	-cem	4f\	-cem	2r	.
4r	.	.	8d\	do-	8f#X\	do-	.	.
.	.	.	8e\	-na	8g\	-na	.	.
!	!	!	!	!	!	!	!LO:LB:g=original	!
=48	=48	=48	=48	=48	=48	=48	=48	=48
4D\	do-	.	(>4f#X\	no-	(>4a\	no-	2a\	no-
4F#X\	-na	.	4d\)	.	4f#X\)	.	.	.
4D\	no-	.	2c\	-bis	2f#\	-bis	2a\	-bis
4D\	-bis	.	.	.	.	.	.	.
!	!	!	!LO:LB:g=original	!	!	!	!	!
=49	=49	=49	=49	=49	=49	=49	=49	=49
(>8F#X\L	pa-	.	2c\	pa-	2f#X\	pa-	2a\	pa-
8D\	.	.	.	.	.	.	.	.
8E\	.	.	.	.	.	.	.	.
8F#\J)	.	.	.	.	.	.	.	.
!LO:LB:g=original	!	!	!	!	!	!	!	!
4G\	-cem	.	4d\	-cem	4g\	-cem	4dd\	-cem
4r	.	.	4r	.	4r	.	4r	.
=50	=50	=50	=50	=50	=50	=50	=50	=50
!	!	!	!	!	!LO:TX:b:t=2.	!	!	!
4G\	do-	.	(>8d\L	do-	0r	.	(>8b\L	do-
.	.	.	8c\J)	.	.	.	8a\J)	.
4G\	-na	.	(>8B\L	-na	.	.	(>8g\L	-na
.	.	.	8c\J)	.	.	.	8a\J)	.
4G\	no-	.	(>8d\L	no-	.	.	(>8b\L	no-
.	.	.	8e\J)	.	.	.	8cc\J)	.
4G\	-bis	.	(>8d\L	-bis	.	.	(>8b\L	-bis
.	.	.	8e\J)	.	.	.	8cc\J)	.
=51	=51	=51	=51	=51	=51	=51	=51	=51
(>4G\	pa-	.	(>4.f\	pa-	.	.	(>4.dd\	pa-
4D\)	.	.	.	.	.	.	.	.
.	.	.	8e\)	.	.	.	8cc\)	.
(<4BB/	-cem	.	2d\	-cem	.	.	2b\	-cem
4GG/)	.	.	.	.	.	.	.	.
=52	=52	=52	=52	=52	=52	=52	=52	=52
!	!	!	!	!	!	!	!LO:TX:a:t=P:problem:w źródle ta adnotacja zapisana ołówkiem	!
!	!	!	!	!	!	!	!LO:TX:b:t=2o	!
4C/	do-	.	(>8c\L	do-	(>8e\L	do-	(>8cc\Lyy	do-
.	.	.	8B\J)	.	8d\J)	.	8b\J)yy	.
!	!	!	!	!	!	!	!LO:TX:a:t=P:problem:w źródle ta adnotacja zapisana ołówkiem	!
!	!	!	!	!	!	!	!LO:TX:i:b:t=uniſsono	!
.	.	.	.	.	.	.	.	.
4c\	-na	.	(>8c\L	-na	(>8c\L	-na	(>8cc\Lyy	-na
.	.	.	8B\J)	.	8d\J)	.	8b\J)yy	.
4G\	no-	.	(>8c\L	no-	(>8e\L	no-	(>8cc\Lyy	no-
.	.	.	8B\J)	.	8d\J)	.	8b\J)yy	.
4E\	-bis	.	(>8c\L	-bis	(>8e\L	-bis	(>8cc\Lyy	-bis
.	.	.	8d\J)	.	8f\J)	.	8dd\J)yy	.
!	!	!	!	!	!LO:LB:g=original	!	!LO:LB:g=original	!
=53	=53	=53	=53	=53	=53	=53	=53	=53
(<4C/	pa-	.	(>4e\	pa-	(>4.g\	pa-	(>4ee\yy	pa-
4GG/)	.	.	4d\)	.	.	.	4dd\)yy	.
.	.	.	.	.	8f\)	.	.	.
2C/	-cem	.	2c\	-cem	2e\	-cem	2cc\yy	-cem
!	!	!	!LO:LB:g=original	!	!	!	!	!
=54	=54	=54	=54	=54	=54	=54	=54	=54
(>8F\L	do-	.	2f\	do-	2a\	do-	2cc\	do-
8G\J)	.	.	.	.	.	.	.	.
(>8A\L	-na	.	.	.	.	.	.	.
8G\J)	.	.	.	.	.	.	.	.
(>8F\L	no-	.	2f\	-na	2a\	-na	2cc\	-na
8G\J)	.	.	.	.	.	.	.	.
(>8A\L	-bis	.	.	.	.	.	.	.
8B\J)	.	.	.	.	.	.	.	.
!LO:LB:g=original	!	!	!	!	!	!	!	!
=55	=55	=55	=55	=55	=55	=55	=55	=55
(>8c\L	pa-	.	2e\	no-	2g\	no-	2cc\	no-
8G\	.	.	.	.	.	.	.	.
8E\	.	.	.	.	.	.	.	.
8C\J)	.	.	.	.	.	.	.	.
4G\	-cem	.	2d\	-bis	2f\	-bis	2b\	-bis
4GG/	da	.	.	.	.	.	.	.
=56	=56	=56	=56	=56	=56	=56	=56	=56
(>4C/	pa-	.	4e\	no-	4g\	no-	4cc\	no-
4F\	.	.	(>8f\L	-bis	(>8a\L	-bis	4a\	-bis
.	.	.	8d\J)	.	8f\J)	.	.	.
4G\	.	.	(>4c\	pa-	(>4e\	pa-	2g/	pa-
4GG/)	.	.	4B\)	.	4d\)	.	.	.
=57	=57	=57	=57	=57	=57	=57	=57	=57
1C	-cem.	.	1c	-cem.	1e	-cem.	1g	-cem.
==	==	==	==	==	==	==	==	==
*-	*-	*-	*-	*-	*-	*-	*-	*-
!!!system-decoration: [(s1,s2,s3,s4)]
!!!RDF**kern: > = above
!!!RDF**kern: < = below
!!!EED: Antoni Szymański
!!!EST: 2021-02-02
!!!ENC: Marcin Jachim
!!!END: 2021-01-27
